shared/images/iconfont/54-kb-iconfont-identity-zcash-16.svg

<?xml version="1.0" encoding="UTF-8"?>
<svg width="16px" height="16px" viewBox="0 0 16 16" version="1.1" xmlns="http://www.w3.org/2000/svg" xmlns:xlink="http://www.w3.org/1999/xlink">
    <!-- Generator: sketchtool 57.1 (101010) - https://sketch.com -->
    <title>1A92AF32-9BD9-452A-B03C-38CFD897250A</title>
    <desc>Created with sketchtool.</desc>
    <g id="Symbols" stroke="none" stroke-width="1" fill="none" fill-rule="evenodd">
        <g id="54-kb-iconfont-identity-zcash-16">
            <g>
                <rect id="icon-area" opacity="0" x="0" y="0" width="16" height="16"></rect>
                <path d="M7.91286154,0.175824176 C12.2759385,0.175824176 15.8256527,3.72553846 15.8256527,8.08861538 C15.8256527,12.4518681 12.2759385,16.0014066 7.91286154,16.0014066 C3.54978462,16.0014066 7.03296703e-05,12.4518681 7.03296703e-05,8.08861538 C7.03296703e-05,3.72553846 3.54978462,0.175824176 7.91286154,0.175824176 Z M7.91286154,1.93406593 C4.51927912,1.93406593 1.75831209,4.69503297 1.75831209,8.08861538 C1.75831209,11.4823736 4.51927912,14.2431648 7.91286154,14.2431648 C11.306444,14.2431648 14.067411,11.4823736 14.067411,8.08861538 C14.067411,4.69503297 11.306444,1.93406593 7.91286154,1.93406593 Z M8.75829451,2.95757363 L8.75829451,4.37084835 L10.8818989,4.37084835 C10.8818989,4.95194725 10.9476571,5.50930989 10.8551736,6.03889231 C10.8061187,6.32038681 10.4912176,6.56126593 10.2814593,6.80777143 C9.61227253,7.59458462 8.93851429,8.37735385 8.26176703,9.15766154 C8.00682198,9.45163956 7.73904176,9.73454066 7.43785495,10.0656176 L10.864844,10.0656176 L10.864844,11.7800791 L8.75987692,11.7800791 C8.78748132,12.2693978 8.8135033,12.7312879 8.84093187,13.2197275 L7.06194286,13.2197275 L7.06194286,11.8017055 L4.94378901,11.8017055 C4.94378901,11.2332659 4.87838242,10.6766066 4.97033846,10.1473758 C5.01921758,9.86552967 5.33112967,9.62324396 5.54053626,9.37673846 C6.2091956,8.58957363 6.88330549,7.8068044 7.56022857,7.02667253 C7.81605275,6.73163956 8.08523956,6.44821099 8.38501978,6.11924396 L5.09675604,6.11924396 L5.09675604,4.39247473 L7.0469978,4.39247473 L7.0469978,2.95757363 L8.75829451,2.95757363 Z" id="Combined-Shape" fill="#000000"></path>
            </g>
        </g>
    </g>
</svg>

<svg xmlns="http://www.w3.org/2000/svg" width="16" height="16" viewBox="0 0 16 16">
    <path fill="#231F20" fill-rule="nonzero" d="M7.913 1.934A6.162 6.162 0 0 0 1.758 8.09a6.161 6.161 0 0 0 6.155 6.154 6.161 6.161 0 0 0 6.154-6.154 6.162 6.162 0 0 0-6.154-6.155zm0 14.067C3.55 16.001 0 12.451 0 8.09 0 3.726 3.55.176 7.913.176s7.913 3.55 7.913 7.913S12.276 16 7.913 16zm-.475-5.935h3.427v1.714H8.76c.027.49.054.951.08 1.44H7.063v-1.418H4.944c0-.569-.066-1.125.026-1.655.05-.281.361-.524.57-.77a294.96 294.96 0 0 1 2.02-2.35c.256-.295.525-.579.825-.908H5.097V4.392h1.95V2.958h1.711V4.37h2.124c0 .58.066 1.138-.027 1.668-.049.281-.364.522-.574.769-.669.787-1.342 1.57-2.02 2.35-.254.294-.522.577-.823.908z"/>
</svg>
